X: 3395
M: 2/4
L: 1/8
K: D
agfe | gfed | dcfe | dABc |
d2f>d | A2d2 | f>ed>e | f2a2 |\
f2f>e | d2d>c | B>bb>a | b3c' |\
d'2 c'2 | b2a2 | gfed | edBz |\


